X: 12256
T: Fairhaired Boy, The
R: reel
M: 4/4
K: Dmajor
|:ABAG FGAB|=c2cd BGG2|ABAG FGAg|1 fdec AddB:|2 fdec Adde||
fddd e2de|fddd ecAe|fddd e2de|fdag fdde|
f2df e2de|f2df ecA^G|ABcd efge|a2ge fddB||

